!!!OTL: Unserm Koenige.
!!!OTL-incipit: DIE WIR HIER DEN REIGEN SCHLINGEN
!!!ARE: Europa, Mitteleuropa, Deutschland
!!!SCT: Z1128
!!!TXL: @@DE
!!!YEM: Copyright 1995, estate of Helmut Schaffrath.
**kern	**text
*ICvox	*
*M4/4	*
*met(c)	*
*k[b-]	*
*F:	*
!LO:TX:a:t=Nach J. Haydn.	!
{4.f	Die
8g	wir
=1	=1
4a	hier
4g	den
4b-/	Rei-
4a	-gen
=2	=2
8gL	ſchlingen
8eJ	.
4f}	.
{4dd/	in
4cc/	des
=3	=3
4b-/	Fe-
4a	-ſtes
4g	ſchönem
8aL	.
8fJ	.
=4	=4
2cc/}	Kreis,
{4.f	Auf,
8g	dem
=5	=5
4a	König,
4g	.
4b-/	Hoch
4a	ʒu
=6	=6
8gL	ſin-
8eJ	.
4f}	-gen.
{4dd/	Was
4cc/	im
=7	=7
4b-/	Herʒen
4a	.
4g	wal-
8aL	-let
8fJ	.
=8	=8
2cc/}	leiſ,
{4g	ſei-
4a	-nen
=9	=9
8gL	Na-
8eJ	.
4c	-men
4b-/	laßt
4a	er-
=10	=10
8gL	-klin-
8eJ	.
4c}	-gen,
{4cc/	ſei-
4b-/	-nes
=11	=11
4.a	Vol-
8a	-kes
4bn/	Ruhm
4b/	und
=12	=12
2cc/;}	Preis!
{4.ff/	Jhm
8ee/	ein
=13	=13
4dd/	ſchmetternd,
4cc/	.
4.dd/	Hochl
8cc/	ʒu
=14	=14
4b-/	bringen,
4a}	.
{4.g	flammen
16aL	.
16b-J	.
=15	=15
8ccL	al-
8ddJ	.
8b-L	-le
8gJ	.
4f	Her-
8aL	-ʒen
8gJ	.
=16	=16
2f}	heiß!
==	==
!!!AGN: Vaterland und Wehr
!!!ONB: ESAC (Essen Associative Code) Database: ZUCCAL
!!!AMT: simple quadruple
!!!AIN: vox
!!!EED: Helmut Schaffrath
!!!EEV: 1.0
!!!GTL: IV. Vaterland und Wehr.
!!!URL-scan: https://www.digitale-sammlungen.de/de/view/bsb11160573?page=281
!!!ENC: Anna Maria Matuszewska
!!!EEV: 2025/02/04
*-	*-
